X:1
T:An einem Bächlein
T:Hubert Waelrant 1550
T:An einem Bächlein
T:Near by a streamlet - Englisches Madrigal
T:CPDL - Creative Commons Attribution Non Commercial 3.0
T:CPDL - Creative Commons Attribution Non Commercial 3.0
C:Hubert Waelrant
Z:CPDL - Creative Commons Attribution Non Commercial 3.0
%%score [ ( 1 2 ) ( 3 4 ) ]
L:1/8
Q:1/4=100
M:4/4
K:C
V:1 treble-8 nm="Tenor"
V:2 treble-8 
V:3 bass nm="Bass"
V:4 bass 
V:1
"^Bewegt"!mf! c4 c2 d2 |: e4 d2 g2 | g2 f2!>(! e4!>)! |[Q:1/4=96]"^più lento" d2 !>!f4 e2 | %4
w: 1.~An ei- nem|Bäch- lein, an|ei- nem Bäch-|lein saß ein|
w: 2.~Sie klagt mit|Ban- gen, sie|klagt mit Ban-|gen, kum- mer-|
 d2 c2!>(! =B4!>)! |1 !fermata!c2!pp![Q:1/4=100]"^Tempo I" c2 c2 d2 :|2 c4 z2"^cresc." e2 || %7
w: ein- sam Mägd-|lein. An ei- nem|lein. Von|
w: bleich die Wang-|en. Sie klagt mit|en. Ich|
[Q:1/4=110]"^accelerando" d2 e2 f3 f |!f! e2 e2 ^f2 g2 |!>(! ^f4 g2!>)! |: %10
w: schwe- rem Gram ihr|Her- ze war be-|la- den,|
w: steh al- lein auf|Got- tes wei- ter|Er- de,|
!p![Q:1/4=100]"^Tempo I" g2 |!>(! !>!gfed!>)! c2 g2 |!<(! !>!edef!<)! g2 a2 | %13
w: und|je- dem Win- des- hauch, und|je- dem Win- des- hauch, und|
w: wann|kommst du sü- ßer Tod, wann|kommst du sü- ßer Tod, wann|
[Q:1/4=90]"^ritard."!>(! !>!agfe!>)! |1 d2[Q:1/4=100]"^Tempo I" e2 | d2 c2 B2 B2 | %16
w: je- dem Win- des-|hauch ver-|traut sie ih- ren|
w: kommst du sü- ßer|Tod, zu|en- den mei- ne|
 c2!pp! c2[Q:1/4=90]"^ritard." B2 c2 | d2 d2 e2 :|2 d2 e2 |!pp! d2 c2 B2 B2 | c8 |] %21
w: Gram, ver- traut sie|ih- ren Gram.|hauch ver-|traut sie ih- ren|Gram,|
w: Not, zu en- den|mei- ne Not.|Tod, zu|en- den mei- ne|Not,|
V:2
 G4 G2 B2 |: c4 A2 c2 | c2 c2 c4 | B2 c4 _B2 | _B2 G2 G4 |1 G2 G2 G2 B2 :|2 G4 x2 c2 || %7
 B2 c2 c3 c | c2 c2 d2 d2 | d4 d2 |: e2 | edcB c2 c2 | cBcd c2 e2 | fedc |1 B2 G2 | G2 G2 G2 G2 | %16
 G2 G2 G2 E2 | B2 B2 c2 :|2 B2 G2 | G2 G2 G2 G2 | G8 |] %21
V:3
!mf! E,4 E,2 G,2 |: G,4 F,2 E,2 | E,2 A,2!>(! G,4!>)! | G,2 !>!A,4 G,2 | F,2 E,2!>(! D,4!>)! |1 %5
w: |||||
w: |||||
 !fermata!E,2!pp! E,2 E,2 G,2 :|2 E,4 z2"^cresc." G,2 || G,2 G,2 A,3 A, |!f! G,2 A,2 A,2 B,2 | %9
w: ||||
w: ||||
!>(! A,4 B,2!>)! |: z2 | z2!p!!>(! G,2!>)!!<(! !>!E,D,E,F,!<)! | G,2 G,2!>(! EDCB,!>)! | A,2 A,2 |1 %14
w: ||und je- dem Win- des-|hauch, und je- dem Win- des-|hauch ver-|
w: ||wann kommst du sü- ßer|Tod, wann kommst du sü- ßer|Tod, zu|
 (B,2 C2 | B,2) E,2 D,2 D,2 | E,2!pp! E,2 D,2 C,2 | G,2 G,2 G,2 :|2 (B,2 C2 | %19
w: traut _|_ sie ih- ren|Gram, ver- traut sie|ih- ren Gram.|traut _|
w: en- *|* den mei- ne|Not, zu en- den|mei- ne Not.|en- *|
!pp! B,2) E,2 D,2 D,2 | E,8 |] %21
w: _ sie ih- ren|Gram.|
w: * den mei- ne|Not.|
V:4
 C,4 C,2 G,2 |: C,4 D,2 C,2 | C,2 F,2 C,4 | G,2 F,4 G,2 | _B,,2 C,2 G,,4 |1 C,2 C,2 C,2 G,2 :|2 %6
 C,4 x2 C,2 || G,,2 C,2 F,3 F, | C,2 A,,2 D,2 G,2 | D,4 G,2 |: x2 | x2 C,2 C,B,,C,D, | %12
 E,2 C,2 CB,A,G, | F,2 F,2 |1 G,4- | G,2 C,2 G,,2 G,,2 | C,2 C,2 G,,2 A,,2 | G,,2 G,,2 C,2 :|2 %18
 G,4- | G,2 C,2 G,,2 G,,2 | C,8 |] %21

